!!!OTL: Old Texas
!!!ARE: United States of America; Texas
!!!AMD: Pentatonic
**kern
*clefG2
*k[b-]
*M3/4
*MM60
{8c/
8f/L
8a/J
=1
4.cc\
16dd\LL
16cc\JJ
8a/L
8f/J
=2
4.a/}
{8c/
8f/L
8a/J
=3
4.g/
16a/LL
16g/JJ
8f/L
8d/J
=4
4f/}
8r
{8c/
8f/L
8a/J
=5
4.cc\
(16dd\LL
16cc\JJ)
8a/L
8f/J
=6
4.a/}
{16c/LL
16c/JJ
8f/L
8a/J
=7
4.g/
(16a/LL
16g/JJ)
8f/L
8d/J
=8
4f/}
==
*-
